src/actions/symbolic/meeting-symbolic.svg

<svg width="16px" height="16px" version="1.1" viewBox="0 0 16 16" xmlns="http://www.w3.org/2000/svg">
 <path d="m6 1c-0.554 0-1 0.446-1 1v1h-3c-1.108 0-2 0.892-2 2v8c0 1.108 0.892 2 2 2h12c1.108 0 2-0.892 2-2v-8c0-1.108-0.892-2-2-2h-3v-1c0-0.554-0.446-1-1-1h-4zm0 1h4v1h-4v-1zm-4 2h3 1 4 1 3c0.554 0 1 0.446 1 1v2h-14v-2c0-0.554 0.446-1 1-1zm-1 4h5c0 0.554 0.446 1 1 1h2c0.554 0 1-0.446 1-1h5v5c0 0.554-0.446 1-1 1h-12c-0.554 0-1-0.446-1-1v-5z" fill="#363636" stop-color="#000000" style="paint-order:stroke fill markers"/>
</svg>

<svg xmlns="http://www.w3.org/2000/svg" width="16" height="16">
    <path fill="#050505" fill-opacity=".7" d="M6 1c-.554 0-1 .446-1 1v1H2C.892 3 0 3.892 0 5v8c0 1.108.892 2 2 2h12c1.108 0 2-.892 2-2V5c0-1.108-.892-2-2-2h-3V2c0-.554-.446-1-1-1H6zm0 1h4v1H6V2zM2 4h12c.554 0 1 .446 1 1v2H1V5c0-.554.446-1 1-1zM1 8h5c0 .554.446 1 1 1h2c.554 0 1-.446 1-1h5v5c0 .554-.446 1-1 1H2c-.554 0-1-.446-1-1V8z" style="paint-order:stroke fill markers"/>
</svg>
